X:71
T:Out On The Ocean
S:The Session: https://thesession.org/tunes/108#setting108
C:Traditional
R:jig
K:G
M:6/8
L:1/8
Q:1/4=113
GE |: D2B BAG| BdB A2B| GED G2A| B2B AGE|
| D2B BAG| BdB A2B| GED G2A|1 BGE G GE :|2 BGE G Bd |]
|: e2e edB| ege edB| d2B def| gfe dBA| 
| G2A B2d| ege d2B| AGE G2A|1 BGE G Bd:|2 BGE G G2 |]

